src/assets/instagram.svg

<?xml version="1.0" encoding="UTF-8" standalone="no"?>
<svg
   xmlns:dc="http://purl.org/dc/elements/1.1/"
   xmlns:cc="http://creativecommons.org/ns#"
   xmlns:rdf="http://www.w3.org/1999/02/22-rdf-syntax-ns#"
   xmlns:svg="http://www.w3.org/2000/svg"
   xmlns="http://www.w3.org/2000/svg"
   version="1.1"
   id="svg919"
   width="90.708664"
   height="90.705551"
   viewBox="0 0 90.708664 90.705553">
  <metadata
     id="metadata925">
    <rdf:RDF>
      <cc:Work
         rdf:about="">
        <dc:format>image/svg+xml</dc:format>
        <dc:type
           rdf:resource="http://purl.org/dc/dcmitype/StillImage" />
        <dc:title></dc:title>
      </cc:Work>
    </rdf:RDF>
  </metadata>
  <defs
     id="defs923" />
  <path
     style="fill:#000000;stroke-width:0.09255504"
     d="M 45.155113,1.7128925e-4 C 38.721392,0.01807129 32.45663,1.4175713 26.246635,4.2134713 24.798591,4.8653713 20.56176,7.3115713 19.273147,8.2395713 12.933641,12.805371 8.2185625,18.270171 4.8346974,24.974071 3.5009039,27.616471 2.5677678,30.062471 1.6946955,33.204071 0.24684286,38.414071 -0.25050518,43.246171 0.11561083,48.546171 0.49107582,53.981571 1.9428488,59.597471 4.2264915,64.448071 4.5093614,65.048871 4.8206507,65.710871 4.9182138,65.919071 5.3033666,66.740971 7.7893832,70.812171 8.5128111,71.805771 14.037066,79.393471 21.303734,84.880071 30.009621,88.036571 31.496962,88.575871 35.149429,89.571071 36.746254,89.872171 40.749921,90.627071 44.539069,90.865671 48.335924,90.601971 60.34755,89.767871 71.398162,84.341271 79.310902,75.391271 83.143958,71.055771 85.949909,66.338171 87.987804,60.802671 88.565459,59.233571 89.591612,55.488171 89.901903,53.816271 91.666395,44.308671 90.542365,35.261071 86.472031,26.208071 85.851033,24.826971 83.378939,20.544871 82.492389,19.314771 76.998951,11.692371 70.235217,6.4072713 61.684864,3.0561713 59.795547,2.3156713 55.29929,1.0447713 53.403448,0.71537129 50.618147,0.23147129 47.871574,-0.00732871 45.155113,1.7128925e-4 Z M 39.509076,21.171371 C 41.696545,21.169971 43.887509,21.231771 46.071625,21.188571 50.205269,21.270571 54.371556,20.942071 58.472463,21.559571 60.749001,22.087671 63.126265,22.830271 64.839373,24.482371 65.887025,25.522371 67.01669,26.498771 67.628496,27.876171 68.823115,30.147271 69.319524,32.707471 69.429662,35.255371 69.56181,40.791871 69.449334,46.339171 69.486736,51.879771 69.515558,55.098771 69.349049,58.422471 67.987102,61.392271 67.39471,62.861471 66.413548,64.101471 65.230381,65.142471 63.476915,67.092871 60.849925,67.905571 58.367389,68.483171 54.057716,69.075271 49.693252,68.729771 45.355905,68.807171 41.750876,68.732671 38.130034,68.935471 34.53483,68.659171 31.811946,68.444471 29.073621,67.551371 26.876534,65.914671 25.731104,64.724871 24.391255,63.685571 23.706162,62.139571 22.511548,59.868471 22.015135,57.308371 21.905,54.760471 21.772854,49.223971 21.885446,43.676671 21.848056,38.136071 21.819222,34.917071 21.985741,31.593371 23.347692,28.623571 23.940076,27.154371 24.921243,25.914371 26.104413,24.873371 27.857889,22.922971 30.484864,22.110271 32.967405,21.532671 35.137656,21.237171 37.321606,21.172671 39.509076,21.171371 Z M 50.558194,25.378271 C 48.344106,25.381371 46.12798,25.434171 43.915653,25.394771 40.395622,25.444571 36.833384,25.199971 33.35516,25.805071 32.032819,26.123971 30.757491,26.550271 29.654947,27.370271 28.147683,28.580771 26.960897,30.266871 26.609715,32.195171 26.135613,33.951771 26.120864,35.809771 26.054249,37.621271 26.090608,43.083171 25.980998,48.551071 26.109837,54.009171 26.216765,55.695171 26.334051,57.379271 26.943103,58.972771 27.479763,60.511771 28.564414,61.862471 29.89926,62.791171 31.148777,63.726971 32.679015,64.074671 34.179479,64.372671 38.340409,64.774571 42.529194,64.517071 46.703421,64.604571 49.73221,64.549371 52.775879,64.765571 55.794377,64.472171 57.402748,64.425071 59.01176,64.046271 60.465604,63.381371 62.113878,62.565371 63.372459,61.159171 64.196187,59.531471 64.967006,57.705371 65.124382,55.707971 65.246922,53.743471 65.310561,47.968571 65.287491,42.185171 65.258175,36.409471 65.129954,34.587371 65.027907,32.760771 64.409181,31.024371 63.696763,29.233871 62.378853,27.631071 60.642671,26.741771 59.59948,26.145171 58.357966,25.892971 57.188533,25.659171 54.98441,25.421471 52.772282,25.375071 50.558194,25.378271 Z M 58.433959,29.403271 C 58.584442,29.402571 58.736025,29.413971 58.887334,29.437971 59.581295,29.579471 60.473873,29.932871 60.772148,30.631471 61.61508,31.800471 61.357325,33.575271 60.211801,34.462271 59.428553,35.120171 58.186935,35.244671 57.267033,34.822471 55.797121,34.236371 55.194276,32.335571 55.892943,30.947671 56.380214,30.002171 57.380574,29.408171 58.433959,29.403271 Z M 45.155249,32.811771 C 45.968307,32.809371 46.788312,32.868771 47.588343,32.867071 49.065304,33.186971 50.495418,33.630671 51.795756,34.417271 53.208557,35.184271 54.476475,36.261671 55.409063,37.580071 56.247615,38.618671 56.812882,39.885071 57.295233,41.117471 57.713072,42.429071 57.962439,43.762071 57.842157,45.142571 57.983909,46.651771 57.565034,48.124671 57.071664,49.530071 56.418427,50.966171 55.641927,52.322971 54.568611,53.489071 53.406186,54.678971 51.997824,55.598171 50.473457,56.268371 48.727138,57.055071 46.756681,57.277371 44.855349,57.245271 44.598196,57.210571 44.34106,57.175971 44.083907,57.141171 41.61549,56.852971 39.289849,55.737171 37.426859,54.102371 36.207485,53.032271 35.250745,51.658971 34.589604,50.174671 33.963368,49.019771 33.655146,47.682671 33.492501,46.394271 33.51882,44.774871 33.320554,43.126671 33.918761,41.580571 34.24162,40.268271 34.947798,39.055571 35.655252,37.918971 36.472213,36.737771 37.491253,35.758771 38.66076,34.930171 40.083354,34.041371 41.617828,33.294571 43.283179,32.987771 43.894669,32.852971 44.52287,32.813571 45.155249,32.811771 Z M 46.002209,37.045271 C 45.845828,37.046771 45.689179,37.053971 45.532564,37.067271 44.250545,36.963771 42.94834,37.356371 41.846587,37.980971 39.920511,39.039171 38.414926,40.883571 37.913179,43.036171 37.564359,44.142871 37.756734,45.364271 37.766483,46.505171 38.057885,47.779271 38.591104,48.940071 39.385021,49.978871 40.667208,51.551771 42.557765,52.724571 44.592462,52.934171 45.746848,52.886271 46.937293,53.135171 48.025313,52.642871 50.012774,52.100271 51.684766,50.636871 52.680272,48.850171 53.218738,47.959671 53.550402,46.873271 53.608036,45.837471 53.642045,44.570871 53.675084,43.304371 53.139883,42.123671 52.555504,40.666571 51.54162,39.327171 50.22928,38.439771 49.002284,37.560571 47.51389,37.031371 46.002209,37.045271 Z"
     id="path1472" />
</svg>

<svg xmlns="http://www.w3.org/2000/svg" width="90.709" height="90.706"><path style="fill:#000;stroke-width:.09255504" d="M45.155 0c-6.434.018-12.698 1.418-18.908 4.213-1.448.652-5.685 3.099-6.974 4.027-6.34 4.565-11.054 10.03-14.438 16.734-1.334 2.642-2.267 5.088-3.14 8.23C.247 38.414-.251 43.246.115 48.546c.376 5.436 1.828 11.051 4.111 15.902l.692 1.471c.385.822 2.871 4.893 3.595 5.887 5.524 7.587 12.79 13.074 21.497 16.23 1.487.54 5.14 1.535 6.736 1.836 4.004.755 7.793.994 11.59.73 12.012-.834 23.062-6.26 30.975-15.21 3.833-4.336 6.639-9.054 8.677-14.59.577-1.568 1.604-5.314 1.914-6.986 1.764-9.507.64-18.555-3.43-27.608-.621-1.381-3.093-5.663-3.98-6.893C77 11.692 70.235 6.407 61.685 3.056c-1.89-.74-6.386-2.011-8.282-2.34A47.332 47.332 0 0 0 45.155 0zM39.51 21.171c2.188-.001 4.379.06 6.563.018 4.133.082 8.3-.247 12.4.37 2.277.529 4.654 1.271 6.367 2.923 1.048 1.04 2.178 2.017 2.79 3.394 1.194 2.271 1.69 4.831 1.8 7.38.133 5.536.02 11.083.058 16.624.029 3.219-.138 6.542-1.5 9.512-.592 1.47-1.573 2.71-2.757 3.75-1.753 1.95-4.38 2.764-6.863 3.341-4.31.592-8.674.247-13.011.324-3.605-.074-7.226.128-10.821-.148-2.723-.215-5.461-1.108-7.658-2.744-1.146-1.19-2.486-2.23-3.17-3.775-1.195-2.272-1.692-4.832-1.802-7.38-.132-5.536-.02-11.083-.057-16.624-.029-3.219.138-6.543 1.5-9.512.592-1.47 1.573-2.71 2.756-3.75 1.754-1.951 4.38-2.764 6.863-3.341 2.17-.296 4.355-.36 6.542-.362zm11.05 4.207c-2.215.003-4.431.056-6.643.017-3.52.05-7.083-.195-10.56.41-1.323.319-2.599.745-3.701 1.565-1.507 1.21-2.694 2.897-3.045 4.825-.474 1.757-.49 3.615-.556 5.426.037 5.462-.073 10.93.056 16.388.107 1.686.224 3.37.833 4.964.537 1.539 1.621 2.89 2.956 3.818 1.25.936 2.78 1.284 4.28 1.582 4.161.402 8.35.144 12.524.232 3.03-.056 6.073.16 9.091-.133a12.165 12.165 0 0 0 4.672-1.09c1.648-.817 2.906-2.223 3.73-3.85.771-1.827.928-3.824 1.05-5.789.065-5.774.041-11.558.012-17.334-.128-1.822-.23-3.648-.849-5.385-.712-1.79-2.03-3.393-3.766-4.282-1.044-.597-2.285-.849-3.454-1.083-2.205-.238-4.417-.284-6.63-.28zm7.875 4.025c.15 0 .302.011.453.035.694.141 1.587.495 1.885 1.193.843 1.17.585 2.944-.56 3.831-.783.658-2.025.783-2.945.36-1.47-.586-2.073-2.486-1.374-3.874a2.89 2.89 0 0 1 2.541-1.545zm-13.279 3.409c.813-.003 1.633.057 2.433.055 1.477.32 2.907.764 4.208 1.55 1.413.767 2.68 1.845 3.613 3.163.839 1.039 1.404 2.305 1.886 3.537.418 1.312.667 2.645.547 4.026.142 1.509-.277 2.982-.77 4.387-.654 1.436-1.43 2.793-2.503 3.96-1.163 1.189-2.571 2.108-4.096 2.778-1.746.787-3.716 1.01-5.618.977l-.771-.104c-2.469-.288-4.794-1.404-6.657-3.039-1.22-1.07-2.176-2.443-2.837-3.927-.627-1.155-.935-2.492-1.097-3.78.026-1.62-.172-3.268.426-4.814.323-1.313 1.029-2.525 1.736-3.662.817-1.181 1.836-2.16 3.006-2.989 1.422-.889 2.957-1.635 4.622-1.942.612-.135 1.24-.174 1.872-.176zm.847 4.233a6.26 6.26 0 0 0-.47.022c-1.281-.103-2.584.29-3.685.914-1.926 1.058-3.432 2.903-3.934 5.055-.349 1.107-.156 2.328-.147 3.47a8.927 8.927 0 0 0 1.619 3.473c1.282 1.573 3.173 2.746 5.207 2.955 1.155-.048 2.345.201 3.433-.291 1.988-.543 3.66-2.006 4.655-3.793.539-.89.87-1.977.928-3.013.034-1.266.067-2.533-.468-3.713-.584-1.457-1.598-2.797-2.91-3.684-1.228-.88-2.716-1.409-4.228-1.395z"/></svg>
